X:8852
T:La Bourree Tournante
N:abc transcription Simon Wascher
N:if you find an error in this transcription please inform simon.wascher@chello.at
M:3/8
L:1/16
K:G
Bc|d2B2d2|dBG2Bc|d2B2d2|d4AB|
c2A2A2|A4GA|B2G2G2|1G4:|2G2F2E2||
|:D4E2|D4E2|D2G2A2|B6|
A2G2A2|G2F2E2|1D2E2D2|B4G2:|2D2B2A2|G4|]


